X:238
T: VERLASSEN HAB ICH DER HEIMATH ORT
N: E1377
O: Europa, Mitteleuropa, Deutschland
R: Staende -, Soldaten -, Kriegs - Lied
M: 2/4
L: 1/16
K: G
D2 | B4A2A2 | G4F2
D2 | G2G2BAGA | B4z2
D2 | B4A2A2 | G4F2
D2 | G2G2BAGA | B4z2
GA | B2B2c2B2 | B2A2A2
A2 | G2G2A2G2 | G2F2F2
EF | G2G2A2A2 | B4c2
B2 | A8 | G4z2

